;FLAVOR:RepRap
;TIME:21992
;Filament used: 33.8515m
;Layer height: 0.32
;Generated with Cura_SteamEngine 2.6.2
M190 S70
M104 S240
M109 S240
G28 ;Home
G29;
G1 Z15.0 F6000 ;Move the platform down 15mm
G92 E0
G1 F200 E3
G92 E0
;LAYER_COUNT:116
;LAYER:0
M107
G0 F4500 X30.93 Y33.682 Z0.3
;TYPE:SKIRT
G1 F1500 X31.347 Y33.322 E0.02474
G1 X31.811 Y33.025 E0.04947
G1 X32.314 Y32.799 E0.07423
G1 X32.844 Y32.648 E0.09898
G1 X33.617 Y32.569 E0.13387
G1 X151.383 Y32.569 E5.4217
G1 X151.933 Y32.609 E5.44646
G1 X152.471 Y32.728 E5.4712
G1 X152.986 Y32.924 E5.49594
G1 X153.467 Y33.192 E5.52067
G1 X154.07 Y33.682 E5.55555
G1 X154.187 Y33.799 E5.56298
G1 X154.547 Y34.216 E5.58772
G1 X154.844 Y34.68 E5.61246
G1 X155.07 Y35.183 E5.63722
G1 X155.221 Y35.713 E5.66196
G1 X155.3 Y36.486 E5.69685
G1 X155.3 Y51.182 E6.35672
G1 X166.383 Y51.182 E6.85436
G1 X166.933 Y51.222 E6.87912
G1 X167.471 Y51.341 E6.90386
G1 X167.986 Y51.537 E6.9286
G1 X168.467 Y51.805 E6.95333
G1 X169.07 Y52.295 E6.98821
G1 X169.187 Y52.412 E6.99564
G1 X169.547 Y52.829 E7.02038
G1 X169.844 Y53.293 E7.04512
G1 X170.07 Y53.796 E7.06988
G1 X170.221 Y54.326 E7.09462
G1 X170.3 Y55.099 E7.12951
G1 X170.3 Y74.865 E8.01703
G1 X170.26 Y75.415 E8.04179
G1 X170.141 Y75.953 E8.06653
G1 X169.945 Y76.468 E8.09127
G1 X169.677 Y76.949 E8.11599
G1 X169.187 Y77.552 E8.15088
G1 X169.07 Y77.669 E8.15831
G1 X168.653 Y78.029 E8.18305
G1 X168.189 Y78.326 E8.20778
G1 X167.686 Y78.552 E8.23254
G1 X167.156 Y78.703 E8.25729
G1 X166.383 Y78.782 E8.29218
G1 X155.3 Y78.782 E8.78982
G1 X155.3 Y193.514 E13.94142
G1 X155.26 Y194.064 E13.96618
G1 X155.141 Y194.602 E13.99092
G1 X154.945 Y195.117 E14.01566
G1 X154.677 Y195.598 E14.04039
G1 X154.187 Y196.201 E14.07528
G1 X154.07 Y196.318 E14.0827
G1 X153.653 Y196.678 E14.10744
G1 X153.189 Y196.975 E14.13218
G1 X152.686 Y197.201 E14.15694
G1 X152.156 Y197.352 E14.18168
G1 X151.383 Y197.431 E14.21657
G1 X33.617 Y197.431 E19.5044
G1 X33.067 Y197.391 E19.52917
G1 X32.529 Y197.272 E19.55391
G1 X32.014 Y197.076 E19.57865
G1 X31.533 Y196.808 E19.60337
G1 X30.93 Y196.318 E19.63826
G1 X30.813 Y196.201 E19.64569
G1 X30.453 Y195.784 E19.67042
G1 X30.156 Y195.32 E19.69516
G1 X29.93 Y194.817 E19.71992
G1 X29.779 Y194.287 E19.74467
G1 X29.7 Y193.514 E19.77956
G1 X29.7 Y78.782 E24.93116
G1 X18.617 Y78.782 E25.4288
G1 X18.067 Y78.742 E25.45356
G1 X17.529 Y78.623 E25.4783
G1 X17.014 Y78.427 E25.50304
G1 X16.533 Y78.159 E25.52777
G1 X15.93 Y77.669 E25.56265
G1 X15.813 Y77.552 E25.57008
G1 X15.453 Y77.135 E25.59482
G1 X15.156 Y76.671 E25.61956
G1 X14.93 Y76.168 E25.64432
G1 X14.779 Y75.638 E25.66906
G1 X14.7 Y74.865 E25.70395
G1 X14.7 Y55.099 E26.59147
G1 X14.74 Y54.549 E26.61623
G1 X14.859 Y54.011 E26.64097
G1 X15.055 Y53.496 E26.66571
G1 X15.323 Y53.015 E26.69043
G1 X15.813 Y52.412 E26.72532
G1 X15.93 Y52.295 E26.73275
G1 X16.347 Y51.935 E26.75749
G1 X16.811 Y51.638 E26.78222
G1 X17.314 Y51.412 E26.80698
G1 X17.844 Y51.261 E26.83173
G1 X18.617 Y51.182 E26.86662
G1 X29.7 Y51.182 E27.36426
G1 X29.7 Y36.486 E28.02413
G1 X29.74 Y35.936 E28.04889
G1 X29.859 Y35.398 E28.07363
G1 X30.055 Y34.883 E28.09837
G1 X30.323 Y34.402 E28.12309
G1 X30.813 Y33.799 E28.15798
G1 X30.93 Y33.682 E28.16541
G0 F4500 X31.213 Y33.965
G1 F1500 X31.609 Y33.626 E28.18882
G1 X32.051 Y33.351 E28.21219
G1 X32.531 Y33.147 E28.23561
G1 X33.036 Y33.019 E28.259
G1 X33.617 Y32.969 E28.28518
G1 X151.383 Y32.969 E33.57302
G1 X151.903 Y33.009 E33.59643
G1 X152.41 Y33.128 E33.61982
G1 X152.893 Y33.323 E33.64321
G1 X153.341 Y33.589 E33.6666
G1 X153.787 Y33.965 E33.69279
G1 X153.904 Y34.082 E33.70022
G1 X154.243 Y34.478 E33.72363
G1 X154.518 Y34.92 E33.747
G1 X154.722 Y35.4 E33.77042
G1 X154.85 Y35.905 E33.79381
G1 X154.9 Y36.486 E33.82
G1 X154.9 Y51.582 E34.49783
G1 X166.383 Y51.582 E35.01343
G1 X166.903 Y51.622 E35.03684
G1 X167.41 Y51.741 E35.06023
G1 X167.893 Y51.936 E35.08362
G1 X168.341 Y52.202 E35.10701
G1 X168.787 Y52.578 E35.1332
G1 X168.904 Y52.695 E35.14063
G1 X169.243 Y53.091 E35.16404
G1 X169.518 Y53.533 E35.18741
G1 X169.722 Y54.013 E35.21083
G1 X169.85 Y54.518 E35.23422
G1 X169.9 Y55.099 E35.26041
G1 X169.9 Y74.865 E36.14792
G1 X169.86 Y75.385 E36.17134
G1 X169.741 Y75.892 E36.19472
G1 X169.546 Y76.375 E36.21811
G1 X169.28 Y76.823 E36.24151
G1 X168.904 Y77.269 E36.2677
G1 X168.787 Y77.386 E36.27513
G1 X168.391 Y77.725 E36.29854
G1 X167.949 Y78 E36.32191
G1 X167.469 Y78.204 E36.34533
G1 X166.964 Y78.332 E36.36872
G1 X166.383 Y78.382 E36.3949
G1 X154.9 Y78.382 E36.9105
G1 X154.9 Y193.514 E42.08007
G1 X154.86 Y194.034 E42.10349
G1 X154.741 Y194.541 E42.12687
G1 X154.546 Y195.024 E42.15026
G1 X154.28 Y195.472 E42.17365
G1 X153.904 Y195.918 E42.19984
G1 X153.787 Y196.035 E42.20727
G1 X153.391 Y196.374 E42.23068
G1 X152.949 Y196.649 E42.25405
G1 X152.469 Y196.853 E42.27747
G1 X151.964 Y196.981 E42.30086
G1 X151.383 Y197.031 E42.32705
G1 X33.617 Y197.031 E47.61488
G1 X33.097 Y196.991 E47.6383
G1 X32.59 Y196.872 E47.66168
G1 X32.107 Y196.677 E47.68507
G1 X31.659 Y196.411 E47.70846
G1 X31.213 Y196.035 E47.73466
G1 X31.096 Y195.918 E47.74209
G1 X30.757 Y195.522 E47.76549
G1 X30.482 Y195.08 E47.78887
G1 X30.278 Y194.6 E47.81229
G1 X30.15 Y194.095 E47.83568
G1 X30.1 Y193.514 E47.86186
G1 X30.1 Y78.382 E53.03142
G1 X18.617 Y78.382 E53.54702
G1 X18.097 Y78.342 E53.57044
G1 X17.59 Y78.223 E53.59383
G1 X17.107 Y78.028 E53.61721
G1 X16.659 Y77.762 E53.64061
G1 X16.213 Y77.386 E53.6668
G1 X16.096 Y77.269 E53.67423
G1 X15.757 Y76.873 E53.69764
G1 X15.482 Y76.431 E53.72101
G1 X15.278 Y75.951 E53.74443
G1 X15.15 Y75.446 E53.76782
G1 X15.1 Y74.865 E53.79401
G1 X15.1 Y55.099 E54.68152
G1 X15.14 Y54.579 E54.70494
G1 X15.259 Y54.072 E54.72832
G1 X15.454 Y53.589 E54.75171
G1 X15.72 Y53.141 E54.77511
G1 X16.096 Y52.695 E54.8013
G1 X16.213 Y52.578 E54.80873
G1 X16.609 Y52.239 E54.83213
G1 X17.051 Y51.964 E54.85551
G1 X17.531 Y51.76 E54.87893
G1 X18.036 Y51.632 E54.90232
G1 X18.617 Y51.582 E54.9285
G1 X30.1 Y51.582 E55.4441
G1 X30.1 Y36.486 E56.12193
G1 X30.14 Y35.966 E56.14535
G1 X30.259 Y35.459 E56.16873
G1 X30.454 Y34.976 E56.19212
G1 X30.72 Y34.528 E56.21551
G1 X31.096 Y34.082 E56.24171
G1 X31.213 Y33.965 E56.24914
G0 F4500 X31.379 Y34.365
G1 F1500 X31.496 Y34.248 E56.25657
G1 X31.869 Y33.931 E56.27855
G1 X32.289 Y33.679 E56.30054
G1 X32.744 Y33.499 E56.32251
G1 X33.222 Y33.395 E56.34447
G1 X33.617 Y33.369 E56.36225
G1 X151.383 Y33.369 E61.65008
G1 X151.871 Y33.409 E61.67207
G1 X152.346 Y33.528 E61.69405
G1 X152.795 Y33.722 E61.71602
G1 X153.207 Y33.987 E61.73801
G1 X153.504 Y34.248 E61.75576
G1 X153.621 Y34.365 E61.76319
G1 X153.938 Y34.738 E61.78517
G1 X154.19 Y35.158 E61.80717
G1 X154.37 Y35.613 E61.82914
G1 X154.474 Y36.091 E61.8511
G1 X154.5 Y36.486 E61.86888
G1 X154.5 Y51.982 E62.56466
G1 X166.383 Y51.982 E63.09823
G1 X166.871 Y52.022 E63.12021
G1 X167.346 Y52.141 E63.1422
G1 X167.795 Y52.335 E63.16416
G1 X168.207 Y52.6 E63.18616
G1 X168.504 Y52.861 E63.20391
G1 X168.621 Y52.978 E63.21134
G1 X168.938 Y53.351 E63.23332
G1 X169.19 Y53.771 E63.25531
G1 X169.37 Y54.226 E63.27728
G1 X169.474 Y54.704 E63.29925
G1 X169.5 Y55.099 E63.31702
G1 X169.5 Y74.865 E64.20454
G1 X169.46 Y75.353 E64.22652
G1 X169.341 Y75.828 E64.24851
G1 X169.147 Y76.277 E64.27047
G1 X168.882 Y76.689 E64.29247
G1 X168.621 Y76.986 E64.31022
G1 X168.504 Y77.103 E64.31765
G1 X168.131 Y77.42 E64.33963
G1 X167.711 Y77.672 E64.36162
G1 X167.256 Y77.852 E64.38359
G1 X166.778 Y77.956 E64.40556
G1 X166.383 Y77.982 E64.42333
G1 X154.5 Y77.982 E64.95689
G1 X154.5 Y193.514 E70.14442
G1 X154.46 Y194.002 E70.1664
G1 X154.341 Y194.477 E70.18839
G1 X154.147 Y194.926 E70.21035
G1 X153.882 Y195.338 E70.23235
G1 X153.621 Y195.635 E70.2501
G1 X153.504 Y195.752 E70.25753
G1 X153.131 Y196.069 E70.27951
G1 X152.711 Y196.321 E70.3015
G1 X152.256 Y196.501 E70.32347
G1 X151.778 Y196.605 E70.34544
G1 X151.383 Y196.631 E70.36321
G1 X33.617 Y196.631 E75.65104
G1 X33.129 Y196.591 E75.67303
G1 X32.654 Y196.472 E75.69502
G1 X32.205 Y196.278 E75.71698
G1 X31.793 Y196.013 E75.73897
G1 X31.496 Y195.752 E75.75673
G1 X31.379 Y195.635 E75.76416
G1 X31.062 Y195.262 E75.78614
G1 X30.81 Y194.842 E75.80813
G1 X30.63 Y194.387 E75.8301
G1 X30.526 Y193.909 E75.85206
G1 X30.5 Y193.514 E75.86984
G1 X30.5 Y77.982 E81.05736
G1 X18.617 Y77.982 E81.59092
G1 X18.129 Y77.942 E81.61291
G1 X17.654 Y77.823 E81.63489
G1 X17.205 Y77.629 E81.65686
G1 X16.793 Y77.364 E81.67885
G1 X16.496 Y77.103 E81.69661
G1 X16.379 Y76.986 E81.70404
G1 X16.062 Y76.613 E81.72601
G1 X15.81 Y76.193 E81.74801
G1 X15.63 Y75.738 E81.76998
G1 X15.526 Y75.26 E81.79194
G1 X15.5 Y74.865 E81.80972
G1 X15.5 Y55.099 E82.69723
G1 X15.54 Y54.611 E82.71922
G1 X15.659 Y54.136 E82.74121
G1 X15.853 Y53.687 E82.76317
G1 X16.118 Y53.275 E82.78516
G1 X16.379 Y52.978 E82.80292
G1 X16.496 Y52.861 E82.81035
G1 X16.869 Y52.544 E82.83233
G1 X17.289 Y52.292 E82.85432
G1 X17.744 Y52.112 E82.87629
G1 X18.222 Y52.008 E82.89825
G1 X18.617 Y51.982 E82.91603
G1 X30.5 Y51.982 E83.44959
G1 X30.5 Y36.486 E84.14538
G1 X30.54 Y35.998 E84.16736
G1 X30.659 Y35.523 E84.18935
G1 X30.853 Y35.074 E84.21131
G1 X31.118 Y34.662 E84.23331
G1 X31.379 Y34.365 E84.25106
G0 F4500 X31.779 Y34.531
G1 F1500 X32.128 Y34.238 E84.27152
G1 X32.523 Y34.011 E84.29198
G1 X32.951 Y33.856 E84.31242
G1 X33.617 Y33.769 E84.34258
G1 X151.383 Y33.769 E89.63041
G1 X151.837 Y33.809 E89.65087
G1 X152.277 Y33.927 E89.67133
G1 X152.689 Y34.121 E89.69177
G1 X153.221 Y34.531 E89.72193
G1 X153.338 Y34.648 E89.72936
G1 X153.631 Y34.997 E89.74982
G1 X153.858 Y35.392 E89.77028
G1 X154.013 Y35.82 E89.79072
G1 X154.1 Y36.486 E89.82088
G1 X154.1 Y52.382 E90.53463
G1 X166.383 Y52.382 E91.08615
G1 X166.837 Y52.422 E91.10661
G1 X167.277 Y52.54 E91.12707
G1 X167.689 Y52.734 E91.14751
G1 X168.221 Y53.144 E91.17767
G1 X168.338 Y53.261 E91.1851
G1 X168.631 Y53.61 E91.20556
G1 X168.858 Y54.005 E91.22602
G1 X169.013 Y54.433 E91.24646
G1 X169.1 Y55.099 E91.27662
G1 X169.1 Y74.865 E92.16413
G1 X169.06 Y75.319 E92.1846
G1 X168.942 Y75.759 E92.20505
G1 X168.748 Y76.171 E92.2255
G1 X168.338 Y76.703 E92.25566
G1 X168.221 Y76.82 E92.26309
G1 X167.872 Y77.113 E92.28355
G1 X167.477 Y77.34 E92.304
G1 X167.049 Y77.495 E92.32444
G1 X166.383 Y77.582 E92.3546
G1 X154.1 Y77.582 E92.90612
G1 X154.1 Y193.514 E98.11161
G1 X154.06 Y193.968 E98.13207
G1 X153.942 Y194.408 E98.15252
G1 X153.748 Y194.82 E98.17297
G1 X153.338 Y195.352 E98.20313
G1 X153.221 Y195.469 E98.21056
G1 X152.872 Y195.762 E98.23102
G1 X152.477 Y195.989 E98.25148
G1 X152.049 Y196.144 E98.27192
G1 X151.383 Y196.231 E98.30207
G1 X33.617 Y196.231 E103.58991
G1 X33.163 Y196.191 E103.61037
G1 X32.723 Y196.073 E103.63083
G1 X32.311 Y195.879 E103.65127
G1 X31.779 Y195.469 E103.68143
G1 X31.662 Y195.352 E103.68886
G1 X31.369 Y195.003 E103.70932
G1 X31.142 Y194.608 E103.72978
G1 X30.987 Y194.18 E103.75022
G1 X30.9 Y193.514 E103.78037
G1 X30.9 Y77.582 E108.98586
G1 X18.617 Y77.582 E109.53738
G1 X18.163 Y77.542 E109.55784
G1 X17.723 Y77.424 E109.5783
G1 X17.311 Y77.23 E109.59875
G1 X16.779 Y76.82 E109.6289
G1 X16.662 Y76.703 E109.63633
G1 X16.369 Y76.354 E109.65679
G1 X16.142 Y75.959 E109.67725
G1 X15.987 Y75.531 E109.69769
G1 X15.9 Y74.865 E109.72785
G1 X15.9 Y55.099 E110.61537
G1 X15.94 Y54.645 E110.63583
G1 X16.058 Y54.205 E110.65628
G1 X16.252 Y53.793 E110.67673
G1 X16.662 Y53.261 E110.70689
G1 X16.779 Y53.144 E110.71432
G1 X17.128 Y52.851 E110.73478
G1 X17.523 Y52.624 E110.75524
G1 X17.951 Y52.469 E110.77568
G1 X18.617 Y52.382 E110.80583
G1 X30.9 Y52.382 E111.35735
G1 X30.9 Y36.486 E112.0711
G1 X30.94 Y36.032 E112.09157
G1 X31.058 Y35.592 E112.11202
G1 X31.252 Y35.18 E112.13247
G1 X31.662 Y34.648 E112.16263
G1 X31.779 Y34.531 E112.17006
G0 F4500 X32.061 Y34.813
G1 F1500 X32.385 Y34.547 E112.18888
G1 X32.752 Y34.346 E112.20767
G1 X33.152 Y34.219 E112.22651
G1 X33.617 Y34.169 E112.24751
G1 X151.383 Y34.169 E117.53535
G1 X151.8 Y34.209 E117.55415
G1 X152.202 Y34.327 E117.57297
G1 X152.574 Y34.52 E117.59178
G1 X152.939 Y34.813 E117.6128
G1 X153.056 Y34.93 E117.62023
G1 X153.322 Y35.254 E117.63905
G1 X153.523 Y35.621 E117.65784
G1 X153.65 Y36.021 E117.67668
G1 X153.7 Y36.486 E117.69768
G1 X153.7 Y52.782 E118.42939
G1 X166.383 Y52.782 E118.99888
G1 X166.8 Y52.822 E119.01769
G1 X167.202 Y52.94 E119.0365
G1 X167.574 Y53.133 E119.05531
G1 X167.939 Y53.426 E119.07633
G1 X168.056 Y53.543 E119.08376
G1 X168.322 Y53.867 E119.10258
G1 X168.523 Y54.234 E119.12137
G1 X168.65 Y54.634 E119.14022
G1 X168.7 Y55.099 E119.16121
G1 X168.7 Y74.865 E120.04873
G1 X168.66 Y75.282 E120.06754
G1 X168.542 Y75.684 E120.08635
G1 X168.349 Y76.056 E120.10517
G1 X168.056 Y76.421 E120.12619
G1 X167.939 Y76.538 E120.13362
G1 X167.615 Y76.804 E120.15244
G1 X167.248 Y77.005 E120.17123
G1 X166.848 Y77.132 E120.19007
G1 X166.383 Y77.182 E120.21107
G1 X153.7 Y77.182 E120.78055
G1 X153.7 Y193.514 E126.004
G1 X153.66 Y193.931 E126.02281
G1 X153.542 Y194.333 E126.04162
G1 X153.349 Y194.705 E126.06044
G1 X153.056 Y195.07 E126.08145
G1 X152.939 Y195.187 E126.08888
G1 X152.615 Y195.453 E126.1077
G1 X152.248 Y195.654 E126.12649
G1 X151.848 Y195.781 E126.14534
G1 X151.383 Y195.831 E126.16634
G1 X33.617 Y195.831 E131.45417
G1 X33.2 Y195.791 E131.47298
G1 X32.798 Y195.673 E131.49179
G1 X32.426 Y195.48 E131.51061
G1 X32.061 Y195.187 E131.53162
G1 X31.944 Y195.07 E131.53905
G1 X31.678 Y194.746 E131.55788
G1 X31.477 Y194.379 E131.57666
G1 X31.35 Y193.979 E131.59551
G1 X31.3 Y193.514 E131.61651
G1 X31.3 Y77.182 E136.83995
G1 X18.617 Y77.182 E137.40943
G1 X18.2 Y77.142 E137.42824
G1 X17.798 Y77.024 E137.44706
G1 X17.426 Y76.831 E137.46587
G1 X17.061 Y76.538 E137.48689
G1 X16.944 Y76.421 E137.49432
G1 X16.678 Y76.097 E137.51314
G1 X16.477 Y75.73 E137.53193
G1 X16.35 Y75.33 E137.55077
G1 X16.3 Y74.865 E137.57177
G1 X16.3 Y55.099 E138.45929
G1 X16.34 Y54.682 E138.4781
G1 X16.458 Y54.28 E138.49691
G1 X16.651 Y53.908 E138.51573
G1 X16.944 Y53.543 E138.53674
G1 X17.061 Y53.426 E138.54417
G1 X17.385 Y53.16 E138.563
G1 X17.752 Y52.959 E138.58179
G1 X18.152 Y52.832 E138.60063
G1 X18.617 Y52.782 E138.62163
G1 X31.3 Y52.782 E139.19111
G1 X31.3 Y36.486 E139.92282
G1 X31.34 Y36.069 E139.94163
G1 X31.458 Y35.667 E139.96044
G1 X31.651 Y35.295 E139.97926
G1 X31.944 Y34.93 E140.00028
G1 X32.061 Y34.813 E140.0077
G0 F4500 X32.227 Y35.213
G1 F1500 X32.344 Y35.096 E140.01513
G1 X32.639 Y34.858 E140.03215
G1 X32.977 Y34.687 E140.04916
G1 X33.343 Y34.59 E140.06616
G1 X33.617 Y34.569 E140.0785
G1 X151.383 Y34.569 E145.36633
G1 X151.76 Y34.609 E145.38336
G1 X152.12 Y34.727 E145.40037
G1 X152.447 Y34.917 E145.41735
G1 X152.656 Y35.096 E145.42971
G1 X152.773 Y35.213 E145.43713
G1 X153.011 Y35.508 E145.45415
G1 X153.182 Y35.846 E145.47116
G1 X153.279 Y36.212 E145.48816
G1 X153.3 Y36.486 E145.5005
G1 X153.3 Y53.182 E146.25017
G1 X166.383 Y53.182 E146.83761
G1 X166.76 Y53.222 E146.85464
G1 X167.12 Y53.34 E146.87165
G1 X167.447 Y53.53 E146.88863
G1 X167.656 Y53.709 E146.90098
G1 X167.773 Y53.826 E146.90841
G1 X168.011 Y54.121 E146.92543
G1 X168.182 Y54.459 E146.94244
G1 X168.279 Y54.825 E146.95944
G1 X168.3 Y55.099 E146.97178
G1 X168.3 Y74.865 E147.8593
G1 X168.26 Y75.242 E147.87632
G1 X168.142 Y75.602 E147.89333
G1 X167.952 Y75.929 E147.91031
G1 X167.773 Y76.138 E147.92267
G1 X167.656 Y76.255 E147.9301
G1 X167.361 Y76.493 E147.94712
G1 X167.023 Y76.664 E147.96413
G1 X166.657 Y76.761 E147.98113
G1 X166.383 Y76.782 E147.99347
G1 X153.3 Y76.782 E148.58091
G1 X153.3 Y193.514 E153.82231
G1 X153.26 Y193.891 E153.83934
G1 X153.142 Y194.251 E153.85635
G1 X152.952 Y194.578 E153.87333
G1 X152.773 Y194.787 E153.88568
